X:12803
T:Parnell's Reel
M:2/4
L:1/16
K:D
D2|G2BG dGBG|FDAD BDAD|G2BG dGBd|egfa gedB|!
G2BG dGBG|FDAD BDAD|G2BG dGBd|egfa g2:|!
|:D2|gdBd edBd|eaag fdef|gdBd edBd|egfa g3g|!
gabg efge|ded=c BGBd|efed edBd|egfa [B2g2]:|!
